X: 152
T: Diamond Reel
R: reel
M: C|
L: 1/8
Z: 2012 John Chambers <jc:trillian.mit.edu>
B: J. Anderson "Budget of Strathspeys, Reels and Country Dances" (Early 1800s) p.15 #2
F: http://imslp.org/wiki/Anderson%27s_Budget_of_Strathspeys,_Reels_and_Country_Dances_(Various)
K: Am
e |\
cAce fdgf | ede^f gdBG | AcBE FAGc | dfE^G AAA :|
a |\
c'ab^g a2(e^f) | gedc BdgB | cege dfaf | ea^gb a/a/a (ag) |
ac'be fagc | dfeA ^GABE | AcBd cedf | .e(dcB) cAA |]

%%sep 2 1 500
%%sep 1 1 500

